logos/discord-icon.svg

<?xml version="1.0" encoding="UTF-8"?>
<svg width="256px" height="199px" viewBox="0 0 256 199" version="1.1" xmlns="http://www.w3.org/2000/svg" xmlns:xlink="http://www.w3.org/1999/xlink" preserveAspectRatio="xMidYMid">
    <g>
        <path d="M216.856339,16.5966031 C200.285002,8.84328665 182.566144,3.2084988 164.041564,0 C161.766523,4.11318106 159.108624,9.64549908 157.276099,14.0464379 C137.583995,11.0849896 118.072967,11.0849896 98.7430163,14.0464379 C96.9108417,9.64549908 94.1925838,4.11318106 91.8971895,0 C73.3526068,3.2084988 55.6133949,8.86399117 39.0420583,16.6376612 C5.61752293,67.146514 -3.4433191,116.400813 1.08711069,164.955721 C23.2560196,181.510915 44.7403634,191.567697 65.8621325,198.148576 C71.0772151,190.971126 75.7283628,183.341335 79.7352139,175.300261 C72.104019,172.400575 64.7949724,168.822202 57.8887866,164.667963 C59.7209612,163.310589 61.5131304,161.891452 63.2445898,160.431257 C105.36741,180.133187 151.134928,180.133187 192.754523,160.431257 C194.506336,161.891452 196.298154,163.310589 198.110326,164.667963 C191.183787,168.842556 183.854737,172.420929 176.223542,175.320965 C180.230393,183.341335 184.861538,190.991831 190.096624,198.16893 C211.238746,191.588051 232.743023,181.531619 254.911949,164.955721 C260.227747,108.668201 245.831087,59.8662432 216.856339,16.5966031 Z M85.4738752,135.09489 C72.8290281,135.09489 62.4592217,123.290155 62.4592217,108.914901 C62.4592217,94.5396472 72.607595,82.7145587 85.4738752,82.7145587 C98.3405064,82.7145587 108.709962,94.5189427 108.488529,108.914901 C108.508531,123.290155 98.3405064,135.09489 85.4738752,135.09489 Z M170.525237,135.09489 C157.88039,135.09489 147.510584,123.290155 147.510584,108.914901 C147.510584,94.5396472 157.658606,82.7145587 170.525237,82.7145587 C183.391518,82.7145587 193.761324,94.5189427 193.539891,108.914901 C193.539891,123.290155 183.391518,135.09489 170.525237,135.09489 Z" fill="#5865F2" fill-rule="nonzero"></path>
    </g>
</svg>

<svg preserveAspectRatio="xMidYMid" viewBox="0 0 256 199" xmlns="http://www.w3.org/2000/svg">
  <path fill="#5865F2" d="M216.856 16.597A208.502 208.502 0 0 0 164.042 0c-2.275 4.113-4.933 9.645-6.766 14.046-19.692-2.961-39.203-2.961-58.533 0-1.832-4.4-4.55-9.933-6.846-14.046a207.809 207.809 0 0 0-52.855 16.638C5.618 67.147-3.443 116.4 1.087 164.956c22.169 16.555 43.653 26.612 64.775 33.193A161.094 161.094 0 0 0 79.735 175.3a136.413 136.413 0 0 1-21.846-10.632 108.636 108.636 0 0 0 5.356-4.237c42.122 19.702 87.89 19.702 129.51 0a131.66 131.66 0 0 0 5.355 4.237 136.07 136.07 0 0 1-21.886 10.653c4.006 8.02 8.638 15.67 13.873 22.848 21.142-6.58 42.646-16.637 64.815-33.213 5.316-56.288-9.08-105.09-38.056-148.36ZM85.474 135.095c-12.645 0-23.015-11.805-23.015-26.18s10.149-26.2 23.015-26.2c12.867 0 23.236 11.804 23.015 26.2.02 14.375-10.148 26.18-23.015 26.18Zm85.051 0c-12.645 0-23.014-11.805-23.014-26.18s10.148-26.2 23.014-26.2c12.867 0 23.236 11.804 23.015 26.2 0 14.375-10.148 26.18-23.015 26.18Z"/>
</svg>
